images/basket-white.svg

<svg width="15" height="14" viewBox="0 0 15 14" fill="none" xmlns="http://www.w3.org/2000/svg">
<path fill-rule="evenodd" clip-rule="evenodd" d="M1.16667 0.25C0.798477 0.25 0.5 0.548477 0.5 0.916667C0.5 1.28486 0.798477 1.58333 1.16667 1.58333H2.93794L3.40537 3.91872C3.40821 3.93667 3.41176 3.95438 3.416 3.97182L4.38338 8.80515L4.3835 8.80571C4.46706 9.22572 4.69562 9.60299 5.02921 9.87153C5.36111 10.1387 5.77595 10.2813 6.20183 10.2748H11.8225C12.2484 10.2813 12.6633 10.1387 12.9952 9.87153C13.3289 9.60287 13.5575 9.22538 13.641 8.80515L13.641 8.80515L13.642 8.80016L14.5691 3.93872C14.6063 3.74355 14.5545 3.54195 14.4279 3.38887C14.3012 3.23578 14.1129 3.14716 13.9142 3.14716H4.61072L4.1381 0.785829C4.07574 0.474257 3.80215 0.25 3.4844 0.25H1.16667ZM5.69098 8.54444L4.87759 4.4805H13.1084L12.3328 8.54736C12.31 8.65988 12.2485 8.7609 12.1591 8.83291C12.0691 8.90535 11.9565 8.94383 11.841 8.94162L11.841 8.94149H11.8282H6.19614V8.94137L6.18337 8.94162C6.06787 8.94383 5.95528 8.90535 5.8653 8.83291C5.77531 8.76048 5.71368 8.6587 5.69117 8.5454L5.69098 8.54444ZM4.55739 12.5054C4.55739 11.8175 5.1151 11.2597 5.80307 11.2597C6.49105 11.2597 7.04876 11.8175 7.04876 12.5054C7.04876 13.1934 6.49105 13.7511 5.80307 13.7511C5.1151 13.7511 4.55739 13.1934 4.55739 12.5054ZM10.9307 12.5054C10.9307 11.8175 11.4884 11.2597 12.1764 11.2597C12.8644 11.2597 13.4221 11.8175 13.4221 12.5054C13.4221 13.1934 12.8644 13.7511 12.1764 13.7511C11.4884 13.7511 10.9307 13.1934 10.9307 12.5054Z" fill="#FCFCFC"/>
</svg>

<svg width="15" height="14" fill="none" xmlns="http://www.w3.org/2000/svg"><path fill-rule="evenodd" clip-rule="evenodd" d="M1.1667.25a.6667.6667 0 1 0 0 1.3333h1.7712l.4675 2.3354a.664.664 0 0 0 .0106.0531l.9674 4.8333.0001.0006a1.8255 1.8255 0 0 0 1.8183 1.4691h5.6207a1.8258 1.8258 0 0 0 1.8185-1.4697l.001-.005.9271-4.8614a.6669.6669 0 0 0-.6549-.7915H4.6107L4.1381.7858A.6667.6667 0 0 0 3.4844.25H1.1667ZM5.691 8.5444l-.8134-4.0639h8.2308l-.7756 4.0669a.4923.4923 0 0 1-.4918.3942v-.0001H6.1962v-.0001l-.0128.0002a.4922.4922 0 0 1-.4922-.3962l-.0002-.001Zm-1.1336 3.961c0-.6879.5577-1.2457 1.2457-1.2457.688 0 1.2457.5578 1.2457 1.2457 0 .688-.5577 1.2457-1.2457 1.2457-.688 0-1.2457-.5577-1.2457-1.2457Zm6.3733 0c0-.6879.5577-1.2457 1.2457-1.2457.688 0 1.2457.5578 1.2457 1.2457 0 .688-.5577 1.2457-1.2457 1.2457-.688 0-1.2457-.5577-1.2457-1.2457Z" fill="#FCFCFC"/></svg>
